X: 082
T: Merry today, a Jig
C: attr. John French (1753-1803)
R: jig
B: "John French Collection", John French ed. p.8 #2
S: http://www.heallan.com/french.asp
Z: 2012 John Chambers <jc:trillian.mit.edu>
M: 12/8
L: 1/8
K: F
C |\
FGF AFA cdc cBA | DEF GAB AGF EDC | FGF AFA cdc cBA | DBA GFE F3 F2 |]
f |\
fcf afa gcg bgb | agf efg fed cde | fcf afa gcg bgb | agf cde f3 f2c |
fcf afa gcg bgb | agf efg fed cde | fed cBA Bcd cd_e | dba gfe f3 f2 |]

%%sep 2 1 500
%%sep 1 1 500

